X:45
T: ES WOLLT EINMAL EIN EDLER HERR AUSREITEN
N: E0033
O: Europa, Mitteleuropa, Deutschland, Breslau
R: erzaehlendes Volks - Lied, Ritter - Sage
M: 2/4
L: 1/8
K: F
F | ccdd | cAcA | c2A
F | ccdd | cAcA | c2A
c | BBAF | ccAF | G2F

@@@ Tune index: 3695
